X: 19
T: Maid Behind The Bar, The
Z: tziguk
S: https://thesession.org/tunes/64#setting53263
R: reel
M: 4/4
L: 1/8
K: Dmaj
|:FAAB AFED|FAAB ABde|fBBA Bcde|fdgf edBA|
FAAB AFED|FAAB ABde|fBBA BcdB|AFEF D4:|
|:faag fdde|fdad fd d2|efga beef|gebe gee2 |
faaf bfaf|defd e2 de|fBBA BcdB|AFEF D4:|

